actions/24/document-import-symbolic-rtl.svg

<?xml version="1.0" encoding="UTF-8" standalone="no"?>
<svg
   height="24"
   width="24"
   version="1.1"
   id="svg6257"
   sodipodi:docname="document-import-symbolic-rtl.svg"
   inkscape:version="1.2.2 (b0a8486541, 2022-12-01)"
   xmlns:inkscape="http://www.inkscape.org/namespaces/inkscape"
   xmlns:sodipodi="http://sodipodi.sourceforge.net/DTD/sodipodi-0.dtd"
   xmlns="http://www.w3.org/2000/svg"
   xmlns:svg="http://www.w3.org/2000/svg">
  <defs
     id="defs6261" />
  <sodipodi:namedview
     id="namedview6259"
     pagecolor="#ffffff"
     bordercolor="#000000"
     borderopacity="0.25"
     inkscape:showpageshadow="2"
     inkscape:pageopacity="0.0"
     inkscape:pagecheckerboard="0"
     inkscape:deskcolor="#d1d1d1"
     showgrid="false"
     inkscape:zoom="45.254834"
     inkscape:cx="7.9218056"
     inkscape:cy="10.927009"
     inkscape:window-width="1920"
     inkscape:window-height="1030"
     inkscape:window-x="0"
     inkscape:window-y="0"
     inkscape:window-maximized="1"
     inkscape:current-layer="svg6257" />
  <path
     id="path3239"
     style="fill:#555761;fill-opacity:1;marker:none"
     d="m 20,2 c 0,0 2,2e-6 2,2 v 16 c 0,1.999998 -2,2 -2,2 H 4 c 0,0 -2,-2e-6 -2,-2 V 16.5 C 2,16.223 2.223,16 2.5,16 h 1 C 3.777,16 4,16.223 4,16.5 V 19 c 0,0.999999 1,1 1,1 h 14 c 0,0 1,-1e-6 1,-1 V 5 C 20,4.000001 19,4 19,4 H 5 C 4.000001,4 4,5 4,5 V 7.5 C 4,7.777 3.777,8 3.5,8 h -1 C 2.223,8 2,7.777 2,7.5 V 4 C 2,2.000002 4,2 4,2 Z"
     sodipodi:nodetypes="cssccccssccccsscsccsscccc" />
  <path
     id="rect3396"
     style="fill:#555761;fill-opacity:1;stroke:none;stroke-width:0.999995;stroke-linejoin:round;stroke-opacity:0.5;stop-color:#000000"
     d="M 7.003906,7.0000006 C 6.862242,6.9992604 6.719996,7.0289786 6.585938,7.0898446 6.229132,7.2521796 6.000061,7.6080017 6,8.0000006 V 10 H 1 c -0.55399795,0 -1,0.446002 -1,1 v 2 c 0,0.553998 0.44600205,1 1,1 h 5 v 1.999024 c 9.5e-4,0.858428 1.011819,1.316832 1.658203,0.751952 l 4.500796,-3.799006 c 0.454309,-0.398371 0.454309,-1.505629 0,-1.904 L 7.658203,7.2480475 C 7.473588,7.0864016 7.240014,7.0012343 7.003906,7.0000006 Z"
     sodipodi:nodetypes="scccssssccccccs" />
</svg>

<svg
        xmlns='http://www.w3.org/2000/svg'
        xmlns:svg='http://www.w3.org/2000/svg'
        id='svg6257'
        width='24'
        height='24'>
  <path
          id='path3239'
          fill='url(#gpa:foreground) #555761'
          fill-opacity='1'
          fill-rule='nonzero'
          marker-start='none'
          marker-mid='none'
          marker-end='none'
          d='M 20 2 C 20 2, 22 2, 22 4 L 22 20 C 22 22, 20 22, 20 22 L 4 22 C 4 22, 2 22, 2 20 L 2 16.5 C 2 16.223, 2.223 16, 2.5 16 L 3.5 16 C 3.777 16, 4 16.223, 4 16.5 L 4 19 C 4 20, 5 20, 5 20 L 19 20 C 19 20, 20 20, 20 19 L 20 5 C 20 4, 19 4, 19 4 L 5 4 C 4 4, 4 5, 4 5 L 4 7.5 C 4 7.777, 3.777 8, 3.5 8 L 2.5 8 C 2.223 8, 2 7.777, 2 7.5 L 2 4 C 2 2, 4 2, 4 2 Z'
          class="foreground">
  </path>
  <path
          id='rect3396'
          fill='url(#gpa:foreground) #555761'
          fill-opacity='1'
          fill-rule='nonzero'
          stroke='none'
          stroke-opacity='0.5'
          stroke-width='0.999995'
          stroke-linejoin='round'
          d='M 7.00391 7 C 6.86224 6.99926, 6.72 7.02898, 6.58594 7.08984 C 6.22913 7.25218, 6.00006 7.608, 6 8 L 6 10 L 1 10 C 0.446002 10, 0 10.446, 0 11 L 0 13 C 0 13.554, 0.446002 14, 1 14 L 6 14 L 6 15.999 C 6.00095 16.8575, 7.01182 17.3159, 7.6582 16.751 L 12.159 12.952 C 12.6133 12.5536, 12.6133 11.4463, 12.159 11.048 L 7.6582 7.24805 C 7.47359 7.0864, 7.24001 7.00123, 7.00391 7 Z'
          class="foreground">
  </path>
</svg>
